X:1
T:Voi sete la mia stella
T:Luca Marenzio
T:Source : Il terzo libro delle Villanelle a tre voci---Venetia---G.Vincenzi---1587. Editor : André Vierendeels (02/06/17).
T:Notes : Original clefs : G2, C2, C4 Editorial accidentals above the staff m 11 in S 2 : "A" notated as "F" in original print (editorial suggestion)
T:Voi sete la mia stella
T:©
T:©
C:Luca Marenzio
Z:©
%%score [ 1 2 3 ]
L:1/8
Q:1/4=120
M:4/4
K:C
V:1 treble nm="Soprano 1" snm="S 1"
V:2 treble nm="Soprano 2" snm="S 2"
V:3 treble-8 nm="Tenor" snm="T"
V:1
"^1)" z2 G2 G2 A2 | B2 d2 ^c4 | d2 A2 c4- | c2 B3 A G2 | A8 | G8 :: z2 c4 e2- | e2 c2 d2 e2 | %8
w: Voi se- te|la mia stel-|la, voi voi|_ Fil- li mia|bel-|la,|pe- ro|_ s'A- mor m'an-|
w: Voi pur bra-|ma- te'ogn' ho-|ra, voi voi|_ Fil li ch'io|mo-|ra,|poi che|_ fug- gi- te|
 f4 e2 e2 | e2 d2 c4 | B8 | z4 z2 e2- | e2 g4 d2- | d2 f4 c2- | c2 e3 f g2- | g2 e2 d4 | c8 :| %17
w: ci- de o|lem- pia for-|te,|di-|* ro voi|_ Fil- li|_ vol mi da-|* te mor-|te.|
w: ohi- me, ma|se si mo-|re,|di-|* ro voi|_ Fil- li|_ voi'an- ci- de-|* te'il co-|re.|
V:2
"^2)""^1)" z2 E2 D2 C2 | D2 D2 G4 | ^F4 z2 A2 | A2 D3 D E2 | ^F2 G4 F2 | G8 :: z2 E4 G2- | %7
w: Voi se- te|la mia stel-|la, voi|voi Fil- li mia|bel- * *|la,|pe- ro|
w: Voi sol mi|da- te pe-|ve, voi|voi Fil- li mio|be- * *|ne,|ma s'a-|
 G2 A2 G2 G2 | A4 G2 c2- | c2 B2 A4- | A4 ^G4 | A4 c4 | G4 _B4 | F4 A3 B | c8 | B2 c4 B2 | c8 :| %17
w: _ s'A- mor m'an-|ci- de'o lem-|* pia for-|* te,|di- ro|voi Fil-|li vol mi|da-|te mor- *|te.|
w: * vien las- so|mai, che'l duol|_ m'an- ci-|* da,|di- ro|voi Fil-|li voi se-|te'ho-|mi ci- *|da.|
V:3
"^3)""^1)""^4)" c4 B2 A2 | G2 F2 E4 |"^-natural" D4 z2 F2 | F2 G3 F E2 | D8 | G8 :: C4 c4- | %7
w: Voi se- te|la mia stel-|la, voi|voi Fil- li mia|bel-|la,|pe- ro|
w: Fin che sia-|te'in di pa-|ga, voi|voi Fil- li ma|va-|ga,|di mia|
 c2 A2 B2 c2 | F4 c2 c2- | c2 G2 A4 | E8 | z4 A4 | c4 G4 | _B4 F4 | C3 D E3 F | G8 | C8 :| %17
w: _ s'A- mor m'an-|ci- de'o lem-|* pia for-|te,|di-|ro voi|Fil- li|vol mi da- te|mor-|te.|
w: _ mor- te'a- me-|rov- vi'e sem-|* pre'à tor-|to,|di-|ro voi|Fil- li|voi m'ha ve- te|mor-|te.|

